packages/react-icons/icons/supplier.svg

<svg width="24" height="24" viewBox="0 0 24 24" xmlns="http://www.w3.org/2000/svg"><path fill-rule="evenodd" clip-rule="evenodd" d="M3.99854 5.89902C3.99854 4.84968 4.8492 3.99902 5.89854 3.99902H10.9995C12.0489 3.99902 12.8995 4.84968 12.8995 5.89902V7.40937C12.9328 7.40763 12.9663 7.40676 13 7.40676H18.101C19.1503 7.40676 20.001 8.25741 20.001 9.30676V18.1006C20.001 19.1499 19.1503 20.0006 18.101 20.0006H12.8995V20.0012H11.9995H5.89853C4.84919 20.0012 3.99854 19.1506 3.99854 18.1012V5.89902ZM5.89854 5.79902C5.84331 5.79902 5.79854 5.8438 5.79854 5.89902V7.50895L11.0995 7.50895V5.89902C11.0995 5.84379 11.0548 5.79902 10.9995 5.79902H5.89854ZM11.0995 9.30895L5.79854 9.30895V10.9684L11.0995 10.9684V9.30895ZM5.79854 14.4249V12.7684L11.0995 12.7684V14.4249L5.79854 14.4249ZM5.79854 16.2249V18.1012C5.79854 18.1564 5.84331 18.2012 5.89853 18.2012H11.0995V16.2249L5.79854 16.2249ZM18.101 9.20676C18.1562 9.20676 18.201 9.25153 18.201 9.30676V18.1006C18.201 18.1558 18.1562 18.2006 18.101 18.2006H12.9V9.30676C12.9 9.25153 12.9448 9.20676 13 9.20676H18.101ZM17.1938 11.8684C17.1938 12.3654 16.7908 12.7684 16.2938 12.7684L14.8059 12.7684C14.3089 12.7684 13.9059 12.3654 13.9059 11.8684C13.9059 11.3713 14.3089 10.9684 14.8059 10.9684L16.2938 10.9684C16.7908 10.9684 17.1938 11.3713 17.1938 11.8684ZM16.2938 16.2249C16.7908 16.2249 17.1938 15.8219 17.1938 15.3249C17.1938 14.8278 16.7908 14.4249 16.2938 14.4249H14.8059C14.3089 14.4249 13.9059 14.8278 13.9059 15.3249C13.9059 15.8219 14.3089 16.2249 14.8059 16.2249L16.2938 16.2249Z"/></svg>

<svg xmlns="http://www.w3.org/2000/svg" width="24" height="24"><path fill-rule="evenodd" d="M3.999 5.899c0-1.05.85-1.9 1.9-1.9h5.1c1.05 0 1.9.85 1.9 1.9v1.51L13 7.407h5.101c1.05 0 1.9.85 1.9 1.9V18.1a1.9 1.9 0 0 1-1.9 1.9H5.899a1.9 1.9 0 0 1-1.9-1.9V5.9Zm1.9-.1a.1.1 0 0 0-.1.1v1.61h5.3v-1.61a.1.1 0 0 0-.1-.1H5.9Zm5.2 3.51H5.8v1.66h5.3v-1.66Zm-5.3 5.116v-1.657h5.3v1.657H5.8Zm0 1.8V18.1a.1.1 0 0 0 .1.1h5.2v-1.976H5.8ZM18.1 9.207a.1.1 0 0 1 .1.1V18.1a.1.1 0 0 1-.1.1H12.9V9.307a.1.1 0 0 1 .1-.1h5.101Zm-.907 2.661a.9.9 0 0 1-.9.9h-1.488a.9.9 0 0 1 0-1.8h1.488a.9.9 0 0 1 .9.9Zm-.9 4.357a.9.9 0 0 0 0-1.8h-1.488a.9.9 0 0 0 0 1.8h1.488Z" clip-rule="evenodd"/></svg>
